X:1
T:Orleans
M:3/4
L:1/8
K:Gmix clef=treble-8 octave=1 
G,12 | A,12 | G,12 | D,12 | A,12 |
D12 | C12 | B,12 | A,12 |
A,12 | B,12 | C12 | A,12 |
F,12 | D,12 | E,12 | D,12 |
D,12 | F,12 | A,12 | G,12 |
B,12 | D12 | A,12 | F,12 |
D,12 | E,12 | D,12 | A,12 |
D12 | C12 | B,12 | C12 |
A,12 | G,12 | G,12 | G,12 |
